icons/guidance-icons/manoeuvers-sdk/right-roundabout-exit7.svg

<svg width="80" height="80" viewBox="0 0 80 80" fill="none" xmlns="http://www.w3.org/2000/svg">
<g clip-path="url(#clip0_15464_42594)">
<path d="M65.88 29.5C65.96 28.68 66 27.84 66 27C66 26.16 66 25.32 65.88 24.5H60.33C59.8775 20.815 58.4289 17.3232 56.14 14.4L60.06 10.48C58.9978 9.18782 57.8122 8.00222 56.52 6.94L52.6 10.86C49.6768 8.57114 46.185 7.12253 42.5 6.67V1.12C41.68 1 40.84 1 40 1C39.16 1 38.32 1 37.5 1.12V6.67C33.815 7.12253 30.3232 8.57114 27.4 10.86L23.48 6.94C22.1878 8.00222 21.0022 9.18782 19.94 10.48L23.86 14.4C21.5711 17.3232 20.1225 20.815 19.67 24.5H14.12C14 25.32 14 26.16 14 27C14 27.84 14 28.68 14.12 29.5H19.67C20.104 33.1018 21.4883 36.5233 23.6809 39.4136C25.8736 42.3039 28.7956 44.5588 32.1473 45.9472C35.499 47.3355 39.1597 47.8072 42.7539 47.3139C46.348 46.8206 49.7463 45.38 52.6 43.14L56.52 47.06C57.8122 45.9978 58.9978 44.8122 60.06 43.52L56.14 39.6C58.4289 36.6768 59.8775 33.185 60.33 29.5H65.88ZM40 42.5C36.9344 42.5 33.9376 41.5909 31.3887 39.8878C28.8397 38.1846 26.853 35.7638 25.6799 32.9316C24.5067 30.0993 24.1998 26.9828 24.7978 23.9761C25.3959 20.9694 26.8721 18.2076 29.0398 16.0398C31.2076 13.8721 33.9694 12.3959 36.9761 11.7978C39.9828 11.1998 43.0993 11.5067 45.9316 12.6799C48.7638 13.853 51.1846 15.8397 52.8878 18.3887C54.5909 20.9376 55.5 23.9344 55.5 27C55.4974 31.11 53.8635 35.051 50.9572 37.9572C48.051 40.8635 44.11 42.4974 40 42.5Z" fill="#C3CDDE" fill-opacity="0.35"/>
<path d="M46 21.0001L39.56 36.3901L36.21 35.2701L42.21 21.2701H35V18.4701H46V21.0001ZM60.86 24.6001C60.5146 21.6357 59.5413 18.779 58.005 16.2204C56.4688 13.6618 54.4048 11.46 51.9506 9.76178C49.4965 8.06358 46.7086 6.90797 43.7727 6.37197C40.8368 5.83598 37.8204 5.93191 34.9245 6.65338C32.0286 7.37485 29.3197 8.70527 26.9785 10.556C24.6372 12.4067 22.7173 14.7352 21.3467 17.3863C19.9761 20.0373 19.1863 22.9501 19.03 25.9304C18.8736 28.9107 19.3543 31.8901 20.44 34.6701C20.771 35.5584 20.8366 36.5239 20.6289 37.4489C20.4212 38.3738 19.9491 39.2185 19.27 39.8801L13 46.1701L12.77 45.9401L13.13 33.3601L7 33.0001V56.0001H30L29.64 49.8901L17.39 50.2401L23.51 44.1201C25.0118 42.6299 26.0471 40.7346 26.4893 38.6657C26.9315 36.5968 26.7615 34.4439 26 32.4701C24.9053 29.6712 24.6766 26.6081 25.3434 23.6777C26.0103 20.7473 27.5421 18.0848 29.7402 16.0353C31.9382 13.9858 34.7013 12.6438 37.6711 12.1833C40.6409 11.7228 43.6806 12.1651 46.3961 13.4527C49.1116 14.7403 51.3777 16.8139 52.9007 19.4047C54.4237 21.9955 55.1334 24.9841 54.9376 27.9831C54.7419 30.982 53.6499 33.853 51.8031 36.2239C49.9562 38.5948 47.4398 40.3563 44.58 41.2801C42.3749 42.0014 40.4543 43.4015 39.0929 45.2802C37.7314 47.1589 36.9989 49.4199 37 51.7401V80.0001H43V51.7401C43.0029 50.6874 43.3379 49.6625 43.9574 48.8114C44.5769 47.9603 45.4492 47.3264 46.45 47.0001C51.056 45.4896 55.0026 42.4415 57.628 38.3667C60.2534 34.292 61.3981 29.4385 60.87 24.6201L60.86 24.6001Z" fill="white"/>
</g>
<defs>
<clipPath id="clip0_15464_42594">
<rect width="80" height="80" fill="white"/>
</clipPath>
</defs>
</svg>

<svg xmlns="http://www.w3.org/2000/svg" viewBox="0 0 80 80"><path d="M65.88,29.5c.08-.82.12-1.66.12-2.5s0-1.68-.12-2.5H60.33a20.42,20.42,0,0,0-4.19-10.1l3.92-3.92a25.75,25.75,0,0,0-3.54-3.54L52.6,10.86A20.42,20.42,0,0,0,42.5,6.67V1.12C41.68,1,40.84,1,40,1s-1.68,0-2.5.12V6.67a20.42,20.42,0,0,0-10.1,4.19L23.48,6.94a25.75,25.75,0,0,0-3.54,3.54l3.92,3.92a20.42,20.42,0,0,0-4.19,10.1H14.12C14,25.32,14,26.16,14,27s0,1.68.12,2.5h5.55A20.45,20.45,0,0,0,52.6,43.14l3.92,3.92a25.75,25.75,0,0,0,3.54-3.54L56.14,39.6a20.42,20.42,0,0,0,4.19-10.1ZM40,42.5A15.5,15.5,0,1,1,55.5,27,15.51,15.51,0,0,1,40,42.5Z" style="fill:#d1def4;opacity:0.35000000000000003"/><path d="M46,21,39.56,36.39l-3.35-1.12,6-14H35v-2.8H46Zm14.86,3.6A21,21,0,1,0,20.44,34.67a4.89,4.89,0,0,1-1.17,5.21L13,46.17l-.23-.23.36-12.58L7,33V56H30l-.36-6.11-12.25.35,6.12-6.12A10.89,10.89,0,0,0,26,32.47a15,15,0,1,1,18.58,8.81A11,11,0,0,0,37,51.74V80h6V51.74A5,5,0,0,1,46.45,47,21.13,21.13,0,0,0,60.87,24.62Z" style="fill:#fff"/></svg>
